X:1
T:Shoals of Herring
M:2/4
L:1/8
K:C
 C3/2 D/2| GG G2| A3/2 G/2 FE| G2 CE| GG c3/2 d/2| ec d3/2- B/2| G2 c3/2 d/2|\
 e3/2 c/2 d2| c3/2 B/2 GF| E/2 C3/2 CE| G3/2 G/2 EC| F3/2 E/2 D2| C2||\
